bernoullicharts/arctan_x_flajolet__mean.svg

<?xml version="1.0" encoding="utf-8" standalone="no"?>
<!DOCTYPE svg PUBLIC "-//W3C//DTD SVG 1.1//EN"
  "http://www.w3.org/Graphics/SVG/1.1/DTD/svg11.dtd">
<!-- Created with matplotlib (https://matplotlib.org/) -->
<svg height="345.6pt" version="1.1" viewBox="0 0 460.8 345.6" width="460.8pt" xmlns="http://www.w3.org/2000/svg" xmlns:xlink="http://www.w3.org/1999/xlink">
 <defs>
  <style type="text/css">
*{stroke-linecap:butt;stroke-linejoin:round;}
  </style>
 </defs>
 <g id="figure_1">
  <g id="patch_1">
   <path d="M 0 345.6 
L 460.8 345.6 
L 460.8 0 
L 0 0 
z
" style="fill:#ffffff;"/>
  </g>
  <g id="axes_1">
   <g id="patch_2">
    <path d="M 57.6 307.584 
L 414.72 307.584 
L 414.72 41.472 
L 57.6 41.472 
z
" style="fill:#ffffff;"/>
   </g>
   <g id="matplotlib.axis_1">
    <g id="xtick_1">
     <g id="line2d_1">
      <defs>
       <path d="M 0 0 
L 0 3.5 
" id="m77b7e59b67" style="stroke:#000000;stroke-width:0.8;"/>
      </defs>
      <g>
       <use style="stroke:#000000;stroke-width:0.8;" x="73.800255" xlink:href="#m77b7e59b67" y="307.584"/>
      </g>
     </g>
     <g id="text_1">
      <text style="font-family:DejaVu Sans;font-size:10px;font-style:normal;font-weight:normal;text-anchor:middle;" transform="rotate(-0, 73.800255, 322.182437)" x="73.800255" y="322.182437">0.0</text>
     </g>
    </g>
    <g id="xtick_2">
     <g id="line2d_2">
      <g>
       <use style="stroke:#000000;stroke-width:0.8;" x="138.744153" xlink:href="#m77b7e59b67" y="307.584"/>
      </g>
     </g>
     <g id="text_2">
      <text style="font-family:DejaVu Sans;font-size:10px;font-style:normal;font-weight:normal;text-anchor:middle;" transform="rotate(-0, 138.744153, 322.182437)" x="138.744153" y="322.182437">0.2</text>
     </g>
    </g>
    <g id="xtick_3">
     <g id="line2d_3">
      <g>
       <use style="stroke:#000000;stroke-width:0.8;" x="203.688051" xlink:href="#m77b7e59b67" y="307.584"/>
      </g>
     </g>
     <g id="text_3">
      <text style="font-family:DejaVu Sans;font-size:10px;font-style:normal;font-weight:normal;text-anchor:middle;" transform="rotate(-0, 203.688051, 322.182437)" x="203.688051" y="322.182437">0.4</text>
     </g>
    </g>
    <g id="xtick_4">
     <g id="line2d_4">
      <g>
       <use style="stroke:#000000;stroke-width:0.8;" x="268.631949" xlink:href="#m77b7e59b67" y="307.584"/>
      </g>
     </g>
     <g id="text_4">
      <text style="font-family:DejaVu Sans;font-size:10px;font-style:normal;font-weight:normal;text-anchor:middle;" transform="rotate(-0, 268.631949, 322.182437)" x="268.631949" y="322.182437">0.6</text>
     </g>
    </g>
    <g id="xtick_5">
     <g id="line2d_5">
      <g>
       <use style="stroke:#000000;stroke-width:0.8;" x="333.575847" xlink:href="#m77b7e59b67" y="307.584"/>
      </g>
     </g>
     <g id="text_5">
      <text style="font-family:DejaVu Sans;font-size:10px;font-style:normal;font-weight:normal;text-anchor:middle;" transform="rotate(-0, 333.575847, 322.182437)" x="333.575847" y="322.182437">0.8</text>
     </g>
    </g>
    <g id="xtick_6">
     <g id="line2d_6">
      <g>
       <use style="stroke:#000000;stroke-width:0.8;" x="398.519745" xlink:href="#m77b7e59b67" y="307.584"/>
      </g>
     </g>
     <g id="text_6">
      <text style="font-family:DejaVu Sans;font-size:10px;font-style:normal;font-weight:normal;text-anchor:middle;" transform="rotate(-0, 398.519745, 322.182437)" x="398.519745" y="322.182437">1.0</text>
     </g>
    </g>
    <g id="text_7">
     <text style="font-family:DejaVu Sans;font-size:10px;font-style:normal;font-weight:normal;text-anchor:middle;" transform="rotate(-0, 236.16, 335.860562)" x="236.16" y="335.860562">Input Coin's Heads Probability (λ)</text>
    </g>
   </g>
   <g id="matplotlib.axis_2">
    <g id="ytick_1">
     <g id="line2d_7">
      <defs>
       <path d="M 0 0 
L -3.5 0 
" id="mdd53470bb1" style="stroke:#000000;stroke-width:0.8;"/>
      </defs>
      <g>
       <use style="stroke:#000000;stroke-width:0.8;" x="57.6" xlink:href="#mdd53470bb1" y="295.488"/>
      </g>
     </g>
     <g id="text_8">
      <text style="font-family:DejaVu Sans;font-size:10px;font-style:normal;font-weight:normal;text-anchor:end;" transform="rotate(-0, 50.6, 299.287219)" x="50.6" y="299.287219">0.0</text>
     </g>
    </g>
    <g id="ytick_2">
     <g id="line2d_8">
      <g>
       <use style="stroke:#000000;stroke-width:0.8;" x="57.6" xlink:href="#mdd53470bb1" y="265.694897"/>
      </g>
     </g>
     <g id="text_9">
      <text style="font-family:DejaVu Sans;font-size:10px;font-style:normal;font-weight:normal;text-anchor:end;" transform="rotate(-0, 50.6, 269.494115)" x="50.6" y="269.494115">0.1</text>
     </g>
    </g>
    <g id="ytick_3">
     <g id="line2d_9">
      <g>
       <use style="stroke:#000000;stroke-width:0.8;" x="57.6" xlink:href="#mdd53470bb1" y="235.901793"/>
      </g>
     </g>
     <g id="text_10">
      <text style="font-family:DejaVu Sans;font-size:10px;font-style:normal;font-weight:normal;text-anchor:end;" transform="rotate(-0, 50.6, 239.701012)" x="50.6" y="239.701012">0.2</text>
     </g>
    </g>
    <g id="ytick_4">
     <g id="line2d_10">
      <g>
       <use style="stroke:#000000;stroke-width:0.8;" x="57.6" xlink:href="#mdd53470bb1" y="206.10869"/>
      </g>
     </g>
     <g id="text_11">
      <text style="font-family:DejaVu Sans;font-size:10px;font-style:normal;font-weight:normal;text-anchor:end;" transform="rotate(-0, 50.6, 209.907908)" x="50.6" y="209.907908">0.3</text>
     </g>
    </g>
    <g id="ytick_5">
     <g id="line2d_11">
      <g>
       <use style="stroke:#000000;stroke-width:0.8;" x="57.6" xlink:href="#mdd53470bb1" y="176.315586"/>
      </g>
     </g>
     <g id="text_12">
      <text style="font-family:DejaVu Sans;font-size:10px;font-style:normal;font-weight:normal;text-anchor:end;" transform="rotate(-0, 50.6, 180.114805)" x="50.6" y="180.114805">0.4</text>
     </g>
    </g>
    <g id="ytick_6">
     <g id="line2d_12">
      <g>
       <use style="stroke:#000000;stroke-width:0.8;" x="57.6" xlink:href="#mdd53470bb1" y="146.522483"/>
      </g>
     </g>
     <g id="text_13">
      <text style="font-family:DejaVu Sans;font-size:10px;font-style:normal;font-weight:normal;text-anchor:end;" transform="rotate(-0, 50.6, 150.321702)" x="50.6" y="150.321702">0.5</text>
     </g>
    </g>
    <g id="ytick_7">
     <g id="line2d_13">
      <g>
       <use style="stroke:#000000;stroke-width:0.8;" x="57.6" xlink:href="#mdd53470bb1" y="116.729379"/>
      </g>
     </g>
     <g id="text_14">
      <text style="font-family:DejaVu Sans;font-size:10px;font-style:normal;font-weight:normal;text-anchor:end;" transform="rotate(-0, 50.6, 120.528598)" x="50.6" y="120.528598">0.6</text>
     </g>
    </g>
    <g id="ytick_8">
     <g id="line2d_14">
      <g>
       <use style="stroke:#000000;stroke-width:0.8;" x="57.6" xlink:href="#mdd53470bb1" y="86.936276"/>
      </g>
     </g>
     <g id="text_15">
      <text style="font-family:DejaVu Sans;font-size:10px;font-style:normal;font-weight:normal;text-anchor:end;" transform="rotate(-0, 50.6, 90.735495)" x="50.6" y="90.735495">0.7</text>
     </g>
    </g>
    <g id="ytick_9">
     <g id="line2d_15">
      <g>
       <use style="stroke:#000000;stroke-width:0.8;" x="57.6" xlink:href="#mdd53470bb1" y="57.143172"/>
      </g>
     </g>
     <g id="text_16">
      <text style="font-family:DejaVu Sans;font-size:10px;font-style:normal;font-weight:normal;text-anchor:end;" transform="rotate(-0, 50.6, 60.942391)" x="50.6" y="60.942391">0.8</text>
     </g>
    </g>
    <g id="text_17">
     <text style="font-family:DejaVu Sans;font-size:10px;font-style:normal;font-weight:normal;text-anchor:middle;" transform="rotate(-90, 28.617187, 174.528)" x="28.617187" y="174.528">Simulated Mean / Function Value</text>
    </g>
   </g>
   <g id="line2d_16">
    <path clip-path="url(#p823000c2ec)" d="M 73.832727 295.458207 
L 77.112066 292.44951 
L 80.391405 289.441432 
L 83.670744 286.434587 
L 86.950083 283.429586 
L 90.229421 280.427037 
L 93.50876 277.427547 
L 96.788099 274.431718 
L 100.067438 271.440148 
L 103.346777 268.45343 
L 106.626116 265.47215 
L 109.905455 262.49689 
L 113.184793 259.528222 
L 116.464132 256.566712 
L 119.743471 253.612918 
L 123.02281 250.667386 
L 126.302149 247.730657 
L 129.581488 244.803258 
L 132.860826 241.885708 
L 136.140165 238.978514 
L 139.419504 236.082171 
L 142.698843 233.197164 
L 145.978182 230.323962 
L 149.257521 227.463026 
L 152.53686 224.6148 
L 155.816198 221.779718 
L 159.095537 218.958199 
L 162.374876 216.150647 
L 165.654215 213.357454 
L 168.933554 210.578998 
L 172.212893 207.815642 
L 175.492231 205.067734 
L 178.77157 202.335609 
L 182.050909 199.619587 
L 185.330248 196.919972 
L 188.609587 194.237057 
L 191.888926 191.571118 
L 195.168264 188.922416 
L 198.447603 186.291201 
L 201.726942 183.677705 
L 205.006281 181.082148 
L 208.28562 178.504737 
L 211.564959 175.945663 
L 214.844298 173.405105 
L 218.123636 170.883229 
L 221.402975 168.380185 
L 224.682314 165.896114 
L 227.961653 163.431142 
L 231.240992 160.985382 
L 234.520331 158.558938 
L 237.799669 156.1519 
L 241.079008 153.764345 
L 244.358347 151.396341 
L 247.637686 149.047945 
L 250.917025 146.719202 
L 254.196364 144.410148 
L 257.475702 142.120807 
L 260.755041 139.851195 
L 264.03438 137.601319 
L 267.313719 135.371175 
L 270.593058 133.160752 
L 273.872397 130.970029 
L 277.151736 128.798977 
L 280.431074 126.647561 
L 283.710413 124.515737 
L 286.989752 122.403453 
L 290.269091 120.310651 
L 293.54843 118.237268 
L 296.827769 116.183231 
L 300.107107 114.148465 
L 303.386446 112.132885 
L 306.665785 110.136404 
L 309.945124 108.15893 
L 313.224463 106.200362 
L 316.503802 104.260598 
L 319.78314 102.339531 
L 323.062479 100.43705 
L 326.341818 98.553038 
L 329.621157 96.687377 
L 332.900496 94.839944 
L 336.179835 93.010612 
L 339.459174 91.199255 
L 342.738512 89.405738 
L 346.017851 87.629929 
L 349.29719 85.871691 
L 352.576529 84.130885 
L 355.855868 82.40737 
L 359.135207 80.701003 
L 362.414545 79.011641 
L 365.693884 77.339136 
L 368.973223 75.683343 
L 372.252562 74.044111 
L 375.531901 72.421293 
L 378.81124 70.814737 
L 382.090579 69.224293 
L 385.369917 67.649808 
L 388.649256 66.09113 
L 391.928595 64.548107 
L 395.207934 63.020584 
L 398.487273 61.50841 
" style="fill:none;stroke:#1f77b4;stroke-linecap:square;stroke-width:1.5;"/>
   </g>
   <g id="line2d_17">
    <path clip-path="url(#p823000c2ec)" d="M 73.832727 295.488 
L 77.112066 291.316966 
L 80.391405 291.316966 
L 83.670744 284.166621 
L 86.950083 281.18731 
L 90.229421 277.016276 
L 93.50876 271.653517 
L 96.788099 275.22869 
L 100.067438 274.036966 
L 103.346777 268.078345 
L 106.626116 271.653517 
L 109.905455 262.119724 
L 113.184793 266.290759 
L 116.464132 253.181793 
L 119.743471 256.161103 
L 123.02281 244.243862 
L 126.302149 251.990069 
L 129.581488 240.072828 
L 132.860826 243.052138 
L 136.140165 237.093517 
L 139.419504 238.285241 
L 142.698843 223.38869 
L 145.978182 225.772138 
L 149.257521 231.134897 
L 152.53686 223.38869 
L 155.816198 221.005241 
L 159.095537 217.430069 
L 162.374876 204.321103 
L 165.654215 206.704552 
L 168.933554 216.834207 
L 172.212893 212.06731 
L 175.492231 195.979034 
L 178.77157 204.321103 
L 182.050909 195.979034 
L 185.330248 194.191448 
L 188.609587 190.616276 
L 191.888926 187.636966 
L 195.168264 197.170759 
L 198.447603 175.123862 
L 201.726942 180.486621 
L 205.006281 163.802483 
L 208.28562 179.294897 
L 211.564959 173.932138 
L 214.844298 175.719724 
L 218.123636 169.165241 
L 221.402975 164.994207 
L 224.682314 162.610759 
L 227.961653 156.652138 
L 231.240992 162.610759 
L 234.520331 157.248 
L 237.799669 161.419034 
L 241.079008 152.481103 
L 244.358347 145.926621 
L 247.637686 145.330759 
L 250.917025 144.734897 
L 254.196364 150.097655 
L 257.475702 145.926621 
L 260.755041 148.310069 
L 264.03438 129.838345 
L 267.313719 137.584552 
L 270.593058 138.180414 
L 273.872397 135.796966 
L 277.151736 131.030069 
L 280.431074 121.496276 
L 283.710413 118.516966 
L 286.989752 136.392828 
L 290.269091 127.454897 
L 293.54843 106.599724 
L 296.827769 126.859034 
L 300.107107 117.325241 
L 303.386446 122.688 
L 306.665785 112.558345 
L 309.945124 110.770759 
L 313.224463 112.558345 
L 316.503802 101.832828 
L 319.78314 95.278345 
L 323.062479 104.216276 
L 326.341818 89.915586 
L 329.621157 99.449379 
L 332.900496 97.661793 
L 336.179835 82.765241 
L 339.459174 111.962483 
L 342.738512 86.340414 
L 346.017851 92.299034 
L 349.29719 83.361103 
L 352.576529 75.614897 
L 355.855868 77.402483 
L 359.135207 67.86869 
L 362.414545 88.723862 
L 365.693884 82.765241 
L 368.973223 86.340414 
L 372.252562 76.210759 
L 375.531901 63.697655 
L 378.81124 70.252138 
L 382.090579 75.019034 
L 385.369917 53.568 
L 388.649256 61.910069 
L 391.928595 71.443862 
L 395.207934 62.505931 
L 398.487273 60.122483 
" style="fill:none;stroke:#ff7f0e;stroke-linecap:square;stroke-width:1.5;"/>
   </g>
   <g id="patch_3">
    <path d="M 57.6 307.584 
L 57.6 41.472 
" style="fill:none;stroke:#000000;stroke-linecap:square;stroke-linejoin:miter;stroke-width:0.8;"/>
   </g>
   <g id="patch_4">
    <path d="M 414.72 307.584 
L 414.72 41.472 
" style="fill:none;stroke:#000000;stroke-linecap:square;stroke-linejoin:miter;stroke-width:0.8;"/>
   </g>
   <g id="patch_5">
    <path d="M 57.6 307.584 
L 414.72 307.584 
" style="fill:none;stroke:#000000;stroke-linecap:square;stroke-linejoin:miter;stroke-width:0.8;"/>
   </g>
   <g id="patch_6">
    <path d="M 57.6 41.472 
L 414.72 41.472 
" style="fill:none;stroke:#000000;stroke-linecap:square;stroke-linejoin:miter;stroke-width:0.8;"/>
   </g>
   <g id="text_18">
    <text style="font-family:DejaVu Sans;font-size:12px;font-style:normal;font-weight:normal;" transform="translate(88.425938 22.034625)">Simulated Mean for arctan(x) (Flajolet) Algorithm</text>
    <text style="font-family:DejaVu Sans;font-size:12px;font-style:normal;font-weight:normal;" transform="translate(132.609375 35.472)">(Wasserstein Distances in Legend)</text>
   </g>
   <g id="legend_1">
    <g id="patch_7">
     <path d="M 64.6 78.82825 
L 242.85 78.82825 
Q 244.85 78.82825 244.85 76.82825 
L 244.85 48.472 
Q 244.85 46.472 242.85 46.472 
L 64.6 46.472 
Q 62.6 46.472 62.6 48.472 
L 62.6 76.82825 
Q 62.6 78.82825 64.6 78.82825 
z
" style="fill:#ffffff;opacity:0.8;stroke:#cccccc;stroke-linejoin:miter;"/>
    </g>
    <g id="line2d_18">
     <path d="M 66.6 54.570437 
L 86.6 54.570437 
" style="fill:none;stroke:#1f77b4;stroke-linecap:square;stroke-width:1.5;"/>
    </g>
    <g id="line2d_19"/>
    <g id="text_19">
     <text style="font-family:DejaVu Sans;font-size:10px;font-style:normal;font-weight:normal;text-anchor:start;" transform="rotate(-0, 94.6, 58.070437)" x="94.6" y="58.070437">arctan(x)</text>
    </g>
    <g id="line2d_20">
     <path d="M 66.6 69.248562 
L 86.6 69.248562 
" style="fill:none;stroke:#ff7f0e;stroke-linecap:square;stroke-width:1.5;"/>
    </g>
    <g id="line2d_21"/>
    <g id="text_20">
     <text style="font-family:DejaVu Sans;font-size:10px;font-style:normal;font-weight:normal;text-anchor:start;" transform="rotate(-0, 94.6, 72.748562)" x="94.6" y="72.748562">Simul. Mean (WD=0.007324)</text>
    </g>
   </g>
  </g>
 </g>
 <defs>
  <clipPath id="p823000c2ec">
   <rect height="266.112" width="357.12" x="57.6" y="41.472"/>
  </clipPath>
 </defs>
</svg>

<svg height="460.8" viewBox="0 0 460.8 345.6" width="614.4" xmlns="http://www.w3.org/2000/svg" xmlns:xlink="http://www.w3.org/1999/xlink"><defs><style>*{stroke-linecap:butt;stroke-linejoin:round}</style></defs><g id="figure_1"><path d="M0 345.6h460.8V0H0z" fill="#fff" id="patch_1"/><g id="axes_1"><path d="M57.6 307.584h357.12V41.472H57.6z" fill="#fff" id="patch_2"/><g id="matplotlib.axis_1"><g id="xtick_1"><g id="line2d_1"><defs><path d="M0 0v3.5" id="m77b7e59b67" stroke="#000" stroke-width=".8"/></defs><use x="73.8" xlink:href="#m77b7e59b67" y="307.584" stroke="#000" stroke-width=".8"/></g><text x="73.8" y="322.182" font-family="DejaVu Sans" font-size="10" font-weight="400" text-anchor="middle" id="text_1">0.0</text></g><g id="xtick_2"><use x="138.744" xlink:href="#m77b7e59b67" y="307.584" stroke="#000" stroke-width=".8" id="line2d_2"/><text x="138.744" y="322.182" font-family="DejaVu Sans" font-size="10" font-weight="400" text-anchor="middle" id="text_2">0.2</text></g><g id="xtick_3"><use x="203.688" xlink:href="#m77b7e59b67" y="307.584" stroke="#000" stroke-width=".8" id="line2d_3"/><text x="203.688" y="322.182" font-family="DejaVu Sans" font-size="10" font-weight="400" text-anchor="middle" id="text_3">0.4</text></g><g id="xtick_4"><use x="268.632" xlink:href="#m77b7e59b67" y="307.584" stroke="#000" stroke-width=".8" id="line2d_4"/><text x="268.632" y="322.182" font-family="DejaVu Sans" font-size="10" font-weight="400" text-anchor="middle" id="text_4">0.6</text></g><g id="xtick_5"><use x="333.576" xlink:href="#m77b7e59b67" y="307.584" stroke="#000" stroke-width=".8" id="line2d_5"/><text x="333.576" y="322.182" font-family="DejaVu Sans" font-size="10" font-weight="400" text-anchor="middle" id="text_5">0.8</text></g><g id="xtick_6"><use x="398.52" xlink:href="#m77b7e59b67" y="307.584" stroke="#000" stroke-width=".8" id="line2d_6"/><text x="398.52" y="322.182" font-family="DejaVu Sans" font-size="10" font-weight="400" text-anchor="middle" id="text_6">1.0</text></g><text x="236.16" y="335.861" font-family="DejaVu Sans" font-size="10" font-weight="400" text-anchor="middle" id="text_7">Input Coin&apos;s Heads Probability (λ)</text></g><g id="matplotlib.axis_2"><g id="ytick_1"><g id="line2d_7"><defs><path d="M0 0h-3.5" id="mdd53470bb1" stroke="#000" stroke-width=".8"/></defs><use x="57.6" xlink:href="#mdd53470bb1" y="295.488" stroke="#000" stroke-width=".8"/></g><text x="50.6" y="299.287" font-family="DejaVu Sans" font-size="10" font-weight="400" text-anchor="end" id="text_8">0.0</text></g><g id="ytick_2"><use x="57.6" xlink:href="#mdd53470bb1" y="265.695" stroke="#000" stroke-width=".8" id="line2d_8"/><text x="50.6" y="269.494" font-family="DejaVu Sans" font-size="10" font-weight="400" text-anchor="end" id="text_9">0.1</text></g><g id="ytick_3"><use x="57.6" xlink:href="#mdd53470bb1" y="235.902" stroke="#000" stroke-width=".8" id="line2d_9"/><text x="50.6" y="239.701" font-family="DejaVu Sans" font-size="10" font-weight="400" text-anchor="end" id="text_10">0.2</text></g><g id="ytick_4"><use x="57.6" xlink:href="#mdd53470bb1" y="206.109" stroke="#000" stroke-width=".8" id="line2d_10"/><text x="50.6" y="209.908" font-family="DejaVu Sans" font-size="10" font-weight="400" text-anchor="end" id="text_11">0.3</text></g><g id="ytick_5"><use x="57.6" xlink:href="#mdd53470bb1" y="176.316" stroke="#000" stroke-width=".8" id="line2d_11"/><text x="50.6" y="180.115" font-family="DejaVu Sans" font-size="10" font-weight="400" text-anchor="end" id="text_12">0.4</text></g><g id="ytick_6"><use x="57.6" xlink:href="#mdd53470bb1" y="146.522" stroke="#000" stroke-width=".8" id="line2d_12"/><text x="50.6" y="150.322" font-family="DejaVu Sans" font-size="10" font-weight="400" text-anchor="end" id="text_13">0.5</text></g><g id="ytick_7"><use x="57.6" xlink:href="#mdd53470bb1" y="116.729" stroke="#000" stroke-width=".8" id="line2d_13"/><text x="50.6" y="120.529" font-family="DejaVu Sans" font-size="10" font-weight="400" text-anchor="end" id="text_14">0.6</text></g><g id="ytick_8"><use x="57.6" xlink:href="#mdd53470bb1" y="86.936" stroke="#000" stroke-width=".8" id="line2d_14"/><text x="50.6" y="90.735" font-family="DejaVu Sans" font-size="10" font-weight="400" text-anchor="end" id="text_15">0.7</text></g><g id="ytick_9"><use x="57.6" xlink:href="#mdd53470bb1" y="57.143" stroke="#000" stroke-width=".8" id="line2d_15"/><text x="50.6" y="60.942" font-family="DejaVu Sans" font-size="10" font-weight="400" text-anchor="end" id="text_16">0.8</text></g><text transform="rotate(-90 28.617 174.528)" x="28.617" y="174.528" font-family="DejaVu Sans" font-size="10" font-weight="400" text-anchor="middle" id="text_17">Simulated Mean / Function Value</text></g><path clip-path="url(#p823000c2ec)" d="M73.833 295.458l3.28-3.008 3.278-3.009 3.28-3.006 3.28-3.005 3.278-3.003 3.28-3 3.28-2.995 3.278-2.992 3.28-2.987 3.28-2.98 3.278-2.976 3.28-2.969 3.28-2.961 3.278-2.954 3.28-2.946 3.28-2.936 3.278-2.928 3.28-2.917 3.28-2.907 3.279-2.897 3.279-2.885 3.28-2.873 3.279-2.861 3.279-2.848 3.28-2.835 3.279-2.822 3.279-2.807 3.28-2.794 3.279-2.778 3.279-2.763 3.28-2.748 3.279-2.732 3.279-2.716 3.28-2.7 3.279-2.683 3.279-2.666 3.28-2.649 3.279-2.63 3.279-2.614 3.28-2.596 3.279-2.577 3.279-2.56 3.28-2.54 3.279-2.522 3.279-2.503 3.28-2.484 3.279-2.465 3.279-2.446 3.28-2.426 3.279-2.407 3.279-2.388 3.28-2.368 3.279-2.348 3.279-2.329 3.28-2.309 3.279-2.29 3.279-2.269 3.28-2.25 3.279-2.23 3.28-2.21 3.278-2.191 3.28-2.171 3.28-2.151 3.278-2.132 3.28-2.113 3.28-2.092 3.278-2.074 3.28-2.054 3.28-2.035 3.278-2.015 3.28-1.997 3.28-1.977 3.278-1.959 3.28-1.94 3.28-1.92 3.278-1.903 3.28-1.884 3.28-1.866 3.278-1.847 3.28-1.83 3.28-1.81 3.279-1.794 3.279-1.776 3.28-1.758 3.279-1.741 3.279-1.724 3.28-1.706 3.279-1.69 3.279-1.672 3.28-1.656 3.279-1.639 3.279-1.623 3.28-1.606 3.279-1.59 3.279-1.575 3.28-1.559 3.279-1.543 3.279-1.527 3.28-1.513" fill="none" stroke="#1f77b4" stroke-linecap="square" stroke-width="1.5" id="line2d_16"/><path clip-path="url(#p823000c2ec)" d="M73.833 295.488l3.28-4.171h3.278l3.28-7.15 3.28-2.98 3.278-4.17 3.28-5.363 3.28 3.575 3.278-1.192 3.28-5.959 3.28 3.576 3.278-9.534 3.28 4.17 3.28-13.108 3.278 2.98 3.28-11.918 3.28 7.746 3.278-11.917 3.28 2.98 3.28-5.96 3.279 1.192 3.279-14.896 3.28 2.383 3.279 5.363 3.279-7.746 3.28-2.384 3.279-3.575 3.279-13.109 3.28 2.384 3.279 10.13 3.279-4.768 3.28-16.088 3.279 8.342 3.279-8.342 3.28-1.788 3.279-3.575 3.279-2.979 3.28 9.534 3.279-22.047 3.279 5.363 3.28-16.685 3.279 15.493 3.279-5.363 3.28 1.788 3.279-6.555 3.279-4.17 3.28-2.384 3.279-5.959 3.279 5.959 3.28-5.363 3.279 4.171 3.279-8.938 3.28-6.554 3.279-.596 3.279-.596 3.28 5.363 3.279-4.171 3.279 2.383 3.28-18.472 3.279 7.747 3.28.595 3.278-2.383 3.28-4.767 3.28-9.534 3.278-2.979 3.28 17.876 3.28-8.938 3.278-20.855 3.28 20.259 3.28-9.534 3.278 5.363 3.28-10.13 3.28-1.787 3.278 1.787 3.28-10.725 3.28-6.555 3.278 8.938 3.28-14.3 3.28 9.533 3.278-1.787 3.28-14.897 3.28 29.197 3.279-25.622 3.279 5.959 3.28-8.938 3.279-7.746 3.279 1.787 3.28-9.533 3.279 20.855 3.279-5.959 3.28 3.575 3.279-10.13 3.279-12.512 3.28 6.554 3.279 4.767 3.279-21.451 3.28 8.342 3.279 9.534 3.279-8.938 3.28-2.384" fill="none" stroke="#ff7f0e" stroke-linecap="square" stroke-width="1.5" id="line2d_17"/><path d="M57.6 307.584V41.472" fill="none" stroke="#000" stroke-linecap="square" stroke-width=".8" id="patch_3"/><path d="M414.72 307.584V41.472" fill="none" stroke="#000" stroke-linecap="square" stroke-width=".8" id="patch_4"/><path d="M57.6 307.584h357.12" fill="none" stroke="#000" stroke-linecap="square" stroke-width=".8" id="patch_5"/><path d="M57.6 41.472h357.12" fill="none" stroke="#000" stroke-linecap="square" stroke-width=".8" id="patch_6"/><g id="text_18" font-family="DejaVu Sans" font-size="12" font-weight="400"><text transform="translate(88.426 22.035)">Simulated Mean for arctan(x) (Flajolet) Algorithm</text><text transform="translate(132.61 35.472)">(Wasserstein Distances in Legend)</text></g><g id="legend_1"><path d="M64.6 78.828h178.25q2 0 2-2V48.472q0-2-2-2H64.6q-2 0-2 2v28.356q0 2 2 2z" fill="#fff" opacity=".8" stroke="#ccc" id="patch_7"/><path d="M66.6 54.57h20" fill="none" stroke="#1f77b4" stroke-linecap="square" stroke-width="1.5" id="line2d_18"/><text x="94.6" y="58.07" font-family="DejaVu Sans" font-size="10" font-weight="400" id="text_19">arctan(x)</text><path d="M66.6 69.249h20" fill="none" stroke="#ff7f0e" stroke-linecap="square" stroke-width="1.5" id="line2d_20"/><text x="94.6" y="72.749" font-family="DejaVu Sans" font-size="10" font-weight="400" id="text_20">Simul. Mean (WD=0.007324)</text></g></g></g><defs><clipPath id="p823000c2ec"><path d="M57.6 41.472h357.12v266.112H57.6z"/></clipPath></defs></svg>
